X: 10828
T: Dream Of Ellen
R: waltz
M: 3/4
K: Dmajor
"D"F4G2|A4B2|A6|z2d2e2|f4d2|A4F2|A4_A2|"A7"G6|
E4F2|G4A2|G6|z2z2e2|e4e2|f4e2|"D"d6|z6|
"D"F4G2|A4B2|A6|z2d2e2|f4f2|"D7"g4f2|"G"e6|B6|
d6|e4^e2|"D"f6|A6|"em"B2g2f2|"A7"e2B2c2|"D"d6-|d2z2z2||

